X:1
T:Prince of Wales Strathspey [1], The
L:1/8
M:2/2
I:linebreak $
K:Bb
V:1 treble 
V:1
 D/E/ | G>GF>D B,D/E/ FD | F>GF>D G/F/E/D/C D/E/ | F>GF>D F>G B>c | dB e/d/c/B/ FBB :|$ g | %6
 f>B e/d/c/B/ F>BD>g | f>B e/d/c/B/ gccb | f>B e/d/c/B/ FBDB | A/B/c Fe dBBg |$ fB e/d/c/B/ F>BDG | %11
 fB e/d/c/B/ g>cc>e | d<fe<g d<fc<d | F>G B>c dBB || %14
